icons/linear-new-office-doc-document-circle-add-plus.svg

<svg xmlns="http://www.w3.org/2000/svg" width="32px" height="32px" viewBox="0 0 32 32" version="1.1">
    <title>linear-new-office-doc-document-circle-add-plus</title>
    <g id="linear-new-office-doc-document-circle-add-plus" stroke-width="1" fill-rule="evenodd">
        <path d="M23,17 C26.8659932,17 30,20.1340068 30,24 C30,27.8659932 26.8659932,31 23,31 C19.1340068,31 16,27.8659932 16,24 C16,20.1340068 19.1340068,17 23,17 Z M27,2 C27.5522847,2 28,2.44771525 28,3 L28.00121,16.5163591 C27.3840325,16.1030892 26.7128866,15.7641414 26.000578,15.5123214 L26,4 L6,4 L6,28 L14.9360629,28.001093 C15.297945,28.7290394 15.7554943,29.4010412 16.2922591,30.0006464 L5,30 C4.44771525,30 4,29.5522847 4,29 L4,3 C4,2.44771525 4.44771525,2 5,2 L27,2 Z M23,19 C20.2385763,19 18,21.2385763 18,24 C18,26.7614237 20.2385763,29 23,29 C25.7614237,29 28,26.7614237 28,24 C28,21.2385763 25.7614237,19 23,19 Z M23,20.5 C23.5522847,20.5 24,20.9477153 24,21.5 L24,23 L25.5,23 C26.0522847,23 26.5,23.4477153 26.5,24 C26.5,24.5522847 26.0522847,25 25.5,25 L24,25 L24,26.5 C24,27.0522847 23.5522847,27.5 23,27.5 C22.4477153,27.5 22,27.0522847 22,26.5 L22,25 L20.5,25 C19.9477153,25 19.5,24.5522847 19.5,24 C19.5,23.4477153 19.9477153,23 20.5,23 L22,23 L22,21.5 C22,20.9477153 22.4477153,20.5 23,20.5 Z M15,14 C15.5522847,14 16,14.4477153 16,15 C16,15.5522847 15.5522847,16 15,16 L11,16 C10.4477153,16 10,15.5522847 10,15 C10,14.4477153 10.4477153,14 11,14 L15,14 Z M21,8 C21.5522847,8 22,8.44771525 22,9 C22,9.55228475 21.5522847,10 21,10 L11,10 C10.4477153,10 10,9.55228475 10,9 C10,8.44771525 10.4477153,8 11,8 L21,8 Z" id="&#24418;&#29366;" fill-rule="nonzero" />
    </g>
</svg>

<svg xmlns="http://www.w3.org/2000/svg" viewBox="0 0 32 32"><path fill="currentColor" d="M23 17a7 7 0 1 1 0 14 7 7 0 0 1 0-14m4-15a1 1 0 0 1 1 1l.001 13.516a8.968 8.968 0 0 0-2-1.004L26 4H6v24l8.936.001c.362.728.82 1.4 1.356 2L5 30a1 1 0 0 1-1-1V3a1 1 0 0 1 1-1zm-4 17a5 5 0 1 0 0 10 5 5 0 0 0 0-10m0 1.5a1 1 0 0 1 1 1V23h1.5a1 1 0 0 1 0 2H24v1.5a1 1 0 0 1-2 0V25h-1.5a1 1 0 0 1 0-2H22v-1.5a1 1 0 0 1 1-1M15 14a1 1 0 0 1 0 2h-4a1 1 0 0 1 0-2zm6-6a1 1 0 0 1 0 2H11a1 1 0 0 1 0-2z"/></svg>
